!!!COM:	Josquin des Pres
**kern	**kern
*part2	*part1
*staff2	*staff1
*clefF4	*clefGv2
*k[]	*k[]
*M2/1	*M2/1
=1-	=1-
1D	[0d
1F	.
=2	=2
1G	1d]
2A	1c
2F	.
=3	=3
4G	0B
4F	.
4E	.
4D	.
4E	.
4D	.
[2d	.
=4	=4
2d]	1A
2c	.
2d	[1d
[2D	.
=5	=5
4D]	1d]
4E	.
4F	.
4G	.
2A	2c
2G	2B
=6	=6
2E	0c
2F	.
2E	.
[2F	.
=7	=7
4F]	1d
4E	.
4D	.
4C	.
1D	1f
=8	=8
4C	1e
4D	.
4E	.
4F	.
4G	[1d
4F	.
4G	.
4A	.
=9	=9
4B	2d]
4A	.
1A	2c
.	1B
2G	.
=10	=10
0A	0A
==	==
*-	*-
